svgs/thin/pen-ruler.svg

<svg xmlns="http://www.w3.org/2000/svg" viewBox="0 0 512 512"><!--! Font Awesome Pro 6.2.0 by @fontawesome - https://fontawesome.com License - https://fontawesome.com/license (Commercial License) Copyright 2022 Fonticons, Inc. --><path d="M383.7 14.63C402.4-4.12 432.8-4.12 451.5 14.63L497.4 60.46C516.1 79.2 516.1 109.6 497.4 128.3L176 449.7C163.7 461.1 148.5 471 131.8 475.9L10.26 511.7C7.449 512.5 4.413 511.7 2.343 509.7C.2733 507.6-.5008 504.6 .3254 501.7L36.08 380.2C40.99 363.5 50.02 348.3 62.32 335.1L383.7 14.63zM440.2 25.94C427.7 13.44 407.5 13.44 394.1 25.94L328.1 92.8L419.2 183.9L486.1 117C498.6 104.5 498.6 84.27 486.1 71.77L440.2 25.94zM51.43 384.7L19.81 492.2L127.3 460.6C141.5 456.4 154.3 448.8 164.7 438.4L407.9 195.2L316.8 104.1L73.63 347.3C63.22 357.7 55.59 370.5 51.44 384.7H51.43zM156.3 32.97C140.7 17.35 115.3 17.35 99.72 32.97L32.97 99.72C17.35 115.3 17.35 140.7 32.97 156.3L109.5 232.8L98.18 244.1L21.66 167.6C-.2125 145.7-.2125 110.3 21.66 88.4L88.4 21.66C110.3-.2105 145.7-.2105 167.6 21.66L244.1 98.18L232.8 109.5L195.3 72L141.7 125.7C138.5 128.8 133.5 128.8 130.3 125.7C127.2 122.5 127.2 117.5 130.3 114.3L184 60.69L156.3 32.97zM267.9 413.8L279.2 402.5L355.7 479C371.3 494.7 396.7 494.7 412.3 479L479 412.3C494.6 396.7 494.6 371.3 479 355.7L451.3 328L397.7 381.7C394.5 384.8 389.5 384.8 386.3 381.7C383.2 378.5 383.2 373.5 386.3 370.3L440 316.7L402.5 279.2L413.8 267.9L490.3 344.4C512.2 366.3 512.2 401.7 490.3 423.6L423.6 490.3C401.7 512.2 366.3 512.2 344.4 490.3L267.9 413.8z"/></svg>

<svg xmlns="http://www.w3.org/2000/svg" viewBox="0 0 512 512"><!--! Font Awesome Pro 6.3.0 by @fontawesome - https://fontawesome.com License - https://fontawesome.com/license (Commercial License) Copyright 2023 Fonticons, Inc. --><path d="M440.2 25.9c-12.5-12.5-32.8-12.5-45.3 0L328.1 92.8l91.1 91.1L486.1 117c12.5-12.5 12.5-32.8 0-45.3L440.2 25.9zM73.6 347.3c-10.4 10.4-18 23.3-22.2 37.4L19.8 492.2l107.5-31.6c14.1-4.2 27-11.8 37.4-22.2L407.9 195.2l-91.1-91.1L73.6 347.3zm310-332.7c18.7-18.7 49.1-18.7 67.9 0l45.8 45.8c18.7 18.7 18.7 49.1 0 67.9L176 449.7c-12.3 12.3-27.5 21.3-44.2 26.2L10.3 511.7c-2.8 .8-5.8 .1-7.9-2s-2.8-5.1-2-7.9L36.1 380.2C41 363.5 50 348.3 62.3 336L383.7 14.6zM156.3 33c-15.6-15.6-40.9-15.6-56.6 0L33 99.7c-15.6 15.6-15.6 40.9 0 56.6l76.5 76.5L98.2 244.1 21.7 167.6c-21.9-21.9-21.9-57.3 0-79.2L88.4 21.7c21.9-21.9 57.3-21.9 79.2 0l76.5 76.5-11.3 11.3L195.3 72l-53.7 53.7c-3.1 3.1-8.2 3.1-11.3 0s-3.1-8.2 0-11.3L184 60.7 156.3 33zM267.9 413.8l11.3-11.3L355.7 479c15.6 15.6 40.9 15.6 56.6 0L479 412.3c15.6-15.6 15.6-40.9 0-56.6L451.3 328l-53.7 53.7c-3.1 3.1-8.2 3.1-11.3 0s-3.1-8.2 0-11.3L440 316.7l-37.5-37.5 11.3-11.3 76.5 76.5c21.9 21.9 21.9 57.3 0 79.2l-66.7 66.7c-21.9 21.9-57.3 21.9-79.2 0l-76.5-76.5z"/></svg>
